Modules/BetterCms.Module.Root/Scss/base_64/icons/editor-bold.svg

<svg xmlns="http://www.w3.org/2000/svg" width="9" height="12" viewBox="0 0 9 12" enable-background="new 0 0 9 12">
 <path fill="#474747" d="m9 8.3c0 .71-.14 1.3-.41 1.78-.27.47-.65.84-1.13 1.13-.46.28-1.02.48-1.67.61-.64.11-1.32.17-2.06.17l-3.73.01v-12h3.47c1.01 0 1.84.09 2.47.28.64.18 1.14.42 1.5.72.36.29.6.62.73.99.13.37.2.73.2 1.1 0 .55-.16 1.05-.48 1.47-.3.43-.72.77-1.24 1.02.92.29 1.53.68 1.85 1.17.33.49.5 1.01.5 1.55m-6.33-1.59v3.18c.19.03.39.04.61.06.23.01.46.02.67.02.3 0 .6-.02.89-.06.29-.05.54-.13.76-.25.23-.13.42-.3.56-.51.14-.23.22-.51.22-.85 0-.57-.21-.97-.63-1.21-.41-.25-.96-.38-1.65-.38h-1.43m1.04-1.93c.68 0 1.19-.13 1.54-.38.35-.26.52-.62.52-1.08 0-.28-.05-.5-.15-.66-.1-.18-.24-.31-.41-.4-.18-.09-.38-.15-.61-.18-.23-.04-.47-.06-.72-.06-.2 0-.41.01-.63.02-.21.01-.41.03-.58.06v2.68h1.04"/>
</svg>

<svg version="1.1" id="Layer_1" xmlns="http://www.w3.org/2000/svg" xmlns:xlink="http://www.w3.org/1999/xlink" x="0px" y="0px"
	 width="9px" height="12px" viewBox="0 0 9 12" enable-background="new 0 0 9 12" xml:space="preserve">
<path id="path4714" fill="#474747" d="
	M9,8.3C9,9,8.9,9.6,8.6,10.1c-0.3,0.5-0.7,0.8-1.1,1.1c-0.5,0.3-1,0.5-1.7,0.6C5.2,11.9,4.5,12,3.7,12L0,12V0l3.5,0
	c1,0,1.8,0.1,2.5,0.3C6.6,0.5,7.1,0.7,7.4,1C7.8,1.3,8,1.6,8.2,2c0.1,0.4,0.2,0.7,0.2,1.1c0,0.6-0.2,1-0.5,1.5
	C7.6,5,7.2,5.3,6.7,5.6c0.9,0.3,1.5,0.7,1.8,1.2C8.8,7.2,9,7.8,9,8.3 M2.7,6.7v3.2c0.2,0,0.4,0,0.6,0.1c0.2,0,0.5,0,0.7,0
	c0.3,0,0.6,0,0.9-0.1c0.3-0.1,0.5-0.1,0.8-0.2C5.8,9.5,6,9.4,6.2,9.2c0.1-0.2,0.2-0.5,0.2-0.9c0-0.6-0.2-1-0.6-1.2
	c-0.4-0.3-1-0.4-1.6-0.4H2.7 M3.7,4.8c0.7,0,1.2-0.1,1.5-0.4c0.3-0.3,0.5-0.6,0.5-1.1c0-0.3-0.1-0.5-0.2-0.7
	C5.5,2.5,5.4,2.4,5.2,2.3C5,2.2,4.8,2.1,4.6,2.1C4.4,2,4.1,2,3.9,2C3.7,2,3.5,2,3.3,2c-0.2,0-0.4,0-0.6,0.1v2.7H3.7"/>
</svg>
